X:1
T: Frank Fusari
C:Bruce Shawyer
R:Reel
Q:232
K:C
M:4/4
L:1/16
|:"F"A4A2_B2 c2c2A4|F4F4F8|"Dm"F4F2G2 A2A2F4|D4D4D8|
"Am"A2B2c4A2B2c4|"G"G2A2B4G2A2B4|"Dm"A2G2F4F4E4|D8D8:|
|:"F"A2_B2c4c4f4|a4f4c4A4|"G"B2c2d4d4g4|b4g4d4B4|
"Em"g2f2e4e4B4|"Am"c2B2A4A4E4|"Dm"A2G2F4F4E4|D8D8:|
